X:392
T:Lady Amelia Murray
R:Strathspey
C:Niel Gow
B:The Athole Collection
M:C
L:1/8
K:D
d/B/|A<D B/A/G/F/ B<E E>d|A<D B/A/G/F/ A<D f>d|e<c d>F B<EE d/B/|
A<D B/A/G/F/ A2A:|
f|d>a f/g/a/f/ g<e e>f|d>a f/g/a/f/ d>af>d|g>ef>d e<E E>F|D>d B/A/G/F/ A2 A>f|
d>a f/g/a/f/ g<e e>f|d>af>a g>ef>d|e>cd>F B<E E>F|D>d B/A/G/F/ A2A||

